X:1
T:Donna quando
T:Donna quando
T:Giovanni Brachrogge
T:Source : Madrigaletti a 3 voci---Libro I---Copenhagen---H.Waldkirch---1619. Editor : André Vierendeels (16/04/14).
C:Giovanni Brachrogge
%%score [ 1 2 3 ]
L:1/8
Q:1/4=100
M:4/4
K:F
V:1 treble nm="Soprano 1" snm="S 1"
V:2 treble nm="Soprano 2" snm="S 2"
V:3 bass nm="Bass" snm="B"
V:1
 B6 c2 | d4 c2 B2 | A2 z4 d2- | dd c2 d2 B2 | A2 A3 A G2 | A2 GF E4 | D4 z2 d2 | dcBB A4 | %8
w: Don- *||na, quan-|* do vi ba- ci-|o, quan- do vi|ba- * * ci-|o, deh|rad- dop- pia- t'il ba-|
 G2 d2 fedd | c4 B2 G2 | B2 c2 d3 B | c4 c2 d2 | f3 e d2 d2 | c4 c2 B2 | d3 c B3 B | A8 |1 %16
w: cio, deh rad- dop- pia- t'il|ba- cio che|se nel bel sor-|ri- so, m'a-|pri- te'un bel nar-|ci- so, m'a-|pri- te'un bel nar-|ci-|
[M:2/4] G4 ::2[M:4/4] G4 z2 dd || cB AB c3 B/A/ | G3 A B2 AB | d4 d2 d2 | dcBB A2 AA | %22
w: so,|so, e ri-|den _ _ _ _ _ _|_ _ _ do'e ba|cian- do, ei|ba- ci ra- dop- pian- do, ei|
 Bcde f3 e/d/ | c4 c2 d2- | dc d2 d2 B2 | c2 cc d3 c | BA G3 A c2- | cBAG F4 | z2 d4 c2 | %29
w: ba- ci ra- dop- pian- * *|* do, co-|* me da chiu- so|spe- co se vo- ce'io|vi fa- ro, se vo-|* c'io vi fa- ro,|voi fa-|
 B>c d<B A4 :| G8 |] %31
w: re- * * * t'Ec-|co.|
V:2
 G6 FE | D4 E4 | ^F2 B3 B A2 | BA G2 F2 F2- | FF E2 F2 ED | ^C2 D4 C2 | D2 d2 dcBA | A2 G2 z2 D2 | %8
w: Don- * *||na, quan- do vi|ba- * ci- o, quan-|* do vi ba- * *|* * ci-|o, deh rad- dop- pia- t'il|ba- cio, deh|
 BAGG ^F2 G2- | G2 ^F2 G2 B2 | G2 A2 B3 B | A4 A2 B2 | d3 c B2 G2 | A4 A2 B2 | B3 A G2 E2 | %15
w: rad- dop- pia- t'il ba- *|* * cio che|se nel bel sor-|ri- so, m'a-|pri- te'un bel nar-|ci- so, m'a|pri- te'un bel nar-|
 ^F2 G4 F2 |1[M:2/4] G4 ::2[M:4/4] G2 BB AG FG || A3 G/F/ G3 A | B2 Bc d3 c/B/ | A4 AAGA | %21
w: ci- * *|so,|so, e- ri- den- * * *||* do'e ba- cian- * *|* do, ei ba- ci|
 Bc d4 Ac | dcBc d3 c/B/ | A4 A2 B2- | BA A2 B2 G2 | A4 A2 d2 | dcBA G4 | z2 c2 cBAG | %28
w: ra- dop- pian- do, ei|ba- ci ra- dop- pian- * *|* do, co-|* me da chiu- so|spe- co se|vo- ce'io vi fa- ro,|se vo- c'io vi fa-|
"^b" FE D4 AA | G>A B<G ^F4 :| G8 |] %31
w: ro, _ _ voi fa-|re- * * * te'Ec-|co.|
V:3
 G,,6 A,,2 | B,,4 C,4 | D,2 G,3 G, ^F,2 | G,2 _E,2 D,2 D,2- | D,D, ^C,2 D,C, B,,2 |"^#" A,,8 | %6
w: Don- *||na, quan- do vi|ba- ci- o, quan-|* do vi ba- * ci-|o,|
 z2 D,2 B,A,G,G, | ^F,2 G,4 F,2 | G,2 G,,2 D,C,B,,B,, | A,,4 G,,2 G,2 | G,2 F,2 B,2 G,2 | %11
w: deh rad- dop- pia- t'il|ba- * ci-|o, deh rad- dop- pia- t'il|ba- cio che|se nel bel sor-|
 F,4 F,2 B,,2 | B,,3 C, D,2 E,2 | F,4 F,2 G,2 | G,,3 A,, B,,2 C,2 | D,8 |1[M:2/4] G,,4 ::2 %17
w: ri- ro, m'a-|pri- te'un bel nar-|ci- so, m'a-|pri- te'un bel nar-|ci-|so,|
[M:4/4] G,,2 G,G, F,E, D,E, || F,3 E,/D,/ C,D,E,F, | G,6 F,G, | D,4 D,2 G,2 | G,,A,,B,,C, D,4 | %22
w: so, e ri- den- * * *||* do'e ba-|cian- do, ei|ba- ci ra- dop- pian-|
 B,,2 B,,2 B,,C,D,E, | F,4 F,2 B,,2 | F,3 D, G,2 B,2 | F,4 F,2 D,2 | G,3 F, _E,D, C,2- | %27
w: do, ei ba- ci ra- do-|pian- do, co-|me da chiu- so|spe- co se|vo- ce'io vi- fa- ro,|
 C,2 C,2 F,3 _E, | D,C, B,,2 B,2 F,2 | G,>C, B,,>C, D,4 :| G,,8 |] %31
w: _ se vo- ce'io|vi fa- ro, voi fa-|re- * * * te'Ec-|co.|

